assets/images/fullscreen.svg

<svg xmlns="http://www.w3.org/2000/svg" xmlns:xlink="http://www.w3.org/1999/xlink" id="Layer_1" x="0" y="0" version="1.1" viewBox="0 0 20 20" style="enable-background:new 0 0 20 20" xml:space="preserve"><path d="M8 2.5C8 2.22386 7.77614 2 7.5 2H1.5C1.22386 2 1 2.22386 1 2.5V7.5C1 7.77614 1.22386 8 1.5 8L2.5 8C2.77614 8 3 7.77614 3 7.5V4.5C3 4.22386 3.22386 4 3.5 4L7.5 4C7.77614 4 8 3.77614 8 3.5V2.5Z"/><path d="M12.5 4C12.2239 4 12 3.77614 12 3.5V2.5C12 2.22386 12.2239 2 12.5 2H18.5C18.7761 2 19 2.22386 19 2.5V7.5C19 7.77614 18.7761 8 18.5 8H17.5C17.2239 8 17 7.77614 17 7.5V4.5C17 4.22386 16.7761 4 16.5 4L12.5 4Z"/><path d="M12 16.5C12 16.2239 12.2239 16 12.5 16H16.5C16.7761 16 17 15.7761 17 15.5V12.5C17 12.2239 17.2239 12 17.5 12H18.5C18.7761 12 19 12.2239 19 12.5V17.5C19 17.7761 18.7761 18 18.5 18H12.5C12.2239 18 12 17.7761 12 17.5V16.5Z"/><path d="M2.5 12C2.77614 12 3 12.2239 3 12.5V15.5C3 15.7761 3.22386 16 3.5 16H7.5C7.77614 16 8 16.2239 8 16.5V17.5C8 17.7761 7.77614 18 7.5 18H1.5C1.22386 18 1 17.7761 1 17.5V12.5C1 12.2239 1.22386 12 1.5 12H2.5Z"/></svg>

<svg xmlns="http://www.w3.org/2000/svg" xml:space="preserve" viewBox="0 0 20 20"><path d="M8 2.5a.5.5 0 0 0-.5-.5h-6a.5.5 0 0 0-.5.5v5a.5.5 0 0 0 .5.5h1a.5.5 0 0 0 .5-.5v-3a.5.5 0 0 1 .5-.5h4a.5.5 0 0 0 .5-.5zM12.5 4a.5.5 0 0 1-.5-.5v-1a.5.5 0 0 1 .5-.5h6a.5.5 0 0 1 .5.5v5a.5.5 0 0 1-.5.5h-1a.5.5 0 0 1-.5-.5v-3a.5.5 0 0 0-.5-.5zM12 16.5a.5.5 0 0 1 .5-.5h4a.5.5 0 0 0 .5-.5v-3a.5.5 0 0 1 .5-.5h1a.5.5 0 0 1 .5.5v5a.5.5 0 0 1-.5.5h-6a.5.5 0 0 1-.5-.5zM2.5 12a.5.5 0 0 1 .5.5v3a.5.5 0 0 0 .5.5h4a.5.5 0 0 1 .5.5v1a.5.5 0 0 1-.5.5h-6a.5.5 0 0 1-.5-.5v-5a.5.5 0 0 1 .5-.5z"/></svg>
